static/images/sophiebluel/logo/sophie-bluel.svg

<svg width="212" height="22" viewBox="0 0 212 22" fill="none" xmlns="http://www.w3.org/2000/svg">
<path d="M0.976055 11.83H6.98206C7.08472 12.138 7.38539 12.402 7.88405 12.622C8.38272 12.8273 9.05006 12.9887 9.88606 13.106C10.7367 13.2087 11.7194 13.26 12.8341 13.26C13.9341 13.26 14.7994 13.2307 15.4301 13.172C16.0754 13.0987 16.5301 12.9813 16.7941 12.82C17.0581 12.644 17.1901 12.4093 17.1901 12.116C17.1901 11.8373 16.9774 11.6247 16.5521 11.478C16.1267 11.3167 15.3714 11.2067 14.2861 11.148C13.2007 11.0893 11.6754 11.06 9.71005 11.06C8.24339 11.06 6.97472 10.994 5.90405 10.862C4.84805 10.7153 3.97539 10.4953 3.28605 10.202C2.61139 9.894 2.11272 9.51267 1.79005 9.058C1.46739 8.58867 1.30605 8.03133 1.30605 7.386C1.30605 6.27133 1.68005 5.35467 2.42805 4.636C3.19072 3.90267 4.33472 3.36 5.86005 3.008C7.40005 2.64133 9.32139 2.458 11.6241 2.458C14.9974 2.458 17.5714 2.94933 19.3461 3.932C21.1354 4.9 22.0301 6.30067 22.0301 8.134H16.3321C16.2587 7.65 15.8041 7.28333 14.9681 7.034C14.1321 6.77 12.9441 6.638 11.4041 6.638C9.87872 6.638 8.74206 6.726 7.99405 6.902C7.26072 7.078 6.89406 7.37867 6.89406 7.804C6.89406 8.024 6.99672 8.2 7.20206 8.332C7.40739 8.464 7.75939 8.574 8.25806 8.662C8.77139 8.73533 9.49006 8.78667 10.4141 8.816C11.3381 8.84533 12.5114 8.86 13.9341 8.86C15.5034 8.86 16.8381 8.94067 17.9381 9.102C19.0381 9.24867 19.9254 9.476 20.6001 9.784C21.2894 10.092 21.7881 10.488 22.0961 10.972C22.4041 11.4413 22.5581 11.9987 22.5581 12.644C22.5581 13.7587 22.2061 14.668 21.5021 15.372C20.7981 16.076 19.6834 16.5967 18.1581 16.934C16.6327 17.2713 14.6381 17.44 12.1741 17.44C10.7807 17.44 9.49739 17.3593 8.32406 17.198C7.16539 17.0367 6.13139 16.802 5.22206 16.494C4.31272 16.1713 3.54272 15.7827 2.91205 15.328C2.28139 14.8587 1.79739 14.338 1.46005 13.766C1.13739 13.1793 0.976055 12.534 0.976055 11.83ZM34.6507 17.33C32.3187 17.33 30.3753 17.1393 28.8207 16.758C27.2807 16.3767 26.122 15.768 25.3447 14.932C24.582 14.096 24.2007 12.996 24.2007 11.632C24.2007 10.268 24.582 9.168 25.3447 8.332C26.122 7.48133 27.2807 6.86533 28.8207 6.484C30.3753 6.088 32.3187 5.89 34.6507 5.89C36.968 5.89 38.8893 6.088 40.4147 6.484C41.9547 6.86533 43.106 7.48133 43.8687 8.332C44.6313 9.168 45.0127 10.268 45.0127 11.632C45.0127 12.996 44.6313 14.096 43.8687 14.932C43.106 15.768 41.9547 16.3767 40.4147 16.758C38.8893 17.1393 36.968 17.33 34.6507 17.33ZM34.6507 14.14C35.736 14.14 36.6453 14.052 37.3787 13.876C38.112 13.6853 38.6693 13.4067 39.0507 13.04C39.432 12.6587 39.6227 12.1893 39.6227 11.632C39.6227 11.0747 39.432 10.6053 39.0507 10.224C38.684 9.84267 38.134 9.55667 37.4007 9.366C36.6673 9.17533 35.7507 9.08 34.6507 9.08C33.5653 9.08 32.6413 9.17533 31.8787 9.366C31.1307 9.55667 30.5587 9.84267 30.1627 10.224C29.7813 10.5907 29.5907 11.06 29.5907 11.632C29.5907 12.1893 29.7813 12.6587 30.1627 13.04C30.544 13.4067 31.1087 13.6853 31.8567 13.876C32.6193 14.052 33.5507 14.14 34.6507 14.14ZM60.1844 17.33C58.8644 17.33 57.6764 17.198 56.6204 16.934C55.5644 16.6553 54.6624 16.2667 53.9144 15.768C53.1664 15.2547 52.5944 14.646 52.1984 13.942C51.8024 13.238 51.6044 12.4607 51.6044 11.61C51.6044 10.7593 51.8024 9.98933 52.1984 9.3C52.5944 8.596 53.1664 7.99467 53.9144 7.496C54.6624 6.98267 55.5644 6.594 56.6204 6.33C57.6764 6.05133 58.8644 5.912 60.1844 5.912C61.7684 5.912 63.1764 6.13933 64.4084 6.594C65.6551 7.034 66.6304 7.67933 67.3344 8.53C68.0384 9.38067 68.3904 10.4073 68.3904 11.61C68.3904 12.8713 68.0384 13.9273 67.3344 14.778C66.6304 15.6287 65.6551 16.2667 64.4084 16.692C63.1764 17.1173 61.7684 17.33 60.1844 17.33ZM58.2044 13.964C59.2017 13.964 60.0524 13.876 60.7564 13.7C61.4604 13.524 61.9957 13.2673 62.3624 12.93C62.7291 12.578 62.9124 12.138 62.9124 11.61C62.9124 10.8327 62.5017 10.246 61.6804 9.85C60.8591 9.454 59.7004 9.256 58.2044 9.256C57.0897 9.256 56.0631 9.322 55.1244 9.454C54.2004 9.586 53.4524 9.828 52.8804 10.18C52.3231 10.5173 52.0444 10.994 52.0444 11.61C52.0444 12.226 52.3231 12.71 52.8804 13.062C53.4524 13.3993 54.2004 13.634 55.1244 13.766C56.0631 13.898 57.0897 13.964 58.2044 13.964ZM46.7644 6.22H51.7364L52.0444 10.4V21.4H46.7644V6.22ZM85.0769 17V12.996C85.0769 12.336 84.9449 11.7787 84.6809 11.324C84.4169 10.8693 83.9476 10.532 83.2729 10.312C82.6129 10.0773 81.6742 9.96 80.4569 9.96C79.7676 9.96 79.0929 10.026 78.4329 10.158C77.7876 10.2753 77.2009 10.422 76.6729 10.598C76.1596 10.774 75.7489 10.95 75.4409 11.126L75.3969 10.07C75.4556 9.85 75.6536 9.52 75.9909 9.08C76.3429 8.62533 76.8489 8.156 77.5089 7.672C78.1689 7.17333 78.9976 6.75533 79.9949 6.418C81.0069 6.066 82.2022 5.89 83.5809 5.89C84.4462 5.89 85.2822 5.97067 86.0889 6.132C86.8956 6.29333 87.6142 6.56467 88.2449 6.946C88.8902 7.31267 89.4036 7.81133 89.7849 8.442C90.1662 9.07267 90.3569 9.85733 90.3569 10.796V17H85.0769ZM70.3809 17V1.82H75.6609V17H70.3809ZM98.1408 0.565999V3.866H92.5528V0.565999H98.1408ZM92.7068 6.22H97.9868V17H92.7068V6.22ZM115.218 13.128H120.41C120.278 13.9787 119.853 14.7193 119.134 15.35C118.43 15.9807 117.396 16.472 116.032 16.824C114.683 17.1613 112.96 17.33 110.862 17.33C108.648 17.33 106.734 17.154 105.12 16.802C103.522 16.45 102.29 15.856 101.424 15.02C100.559 14.184 100.126 13.0547 100.126 11.632C100.126 10.224 100.544 9.102 101.38 8.266C102.231 7.41533 103.456 6.80667 105.054 6.44C106.653 6.07333 108.589 5.89 110.862 5.89C113.092 5.89 114.918 6.088 116.34 6.484C117.763 6.88 118.812 7.52533 119.486 8.42C120.161 9.3 120.484 10.4953 120.454 12.006H105.494C105.568 12.3873 105.773 12.7393 106.11 13.062C106.462 13.3847 106.998 13.6487 107.716 13.854C108.45 14.0447 109.425 14.14 110.642 14.14C111.904 14.14 112.938 14.052 113.744 13.876C114.566 13.7 115.057 13.4507 115.218 13.128ZM110.642 9.08C109.088 9.08 107.9 9.24867 107.078 9.586C106.272 9.92333 105.795 10.2607 105.648 10.598H115.328C115.226 10.2167 114.815 9.872 114.096 9.564C113.378 9.24133 112.226 9.08 110.642 9.08ZM129.578 17V2.92H143.438C146.283 2.92 148.381 3.19867 149.73 3.756C151.079 4.31333 151.754 5.28133 151.754 6.66C151.754 7.54 151.461 8.21467 150.874 8.684C150.302 9.15333 149.473 9.48333 148.388 9.674C147.317 9.85 146.027 9.96 144.516 10.004L144.692 9.828C145.792 9.828 146.811 9.85733 147.75 9.916C148.689 9.97467 149.51 10.1067 150.214 10.312C150.918 10.5173 151.468 10.8327 151.864 11.258C152.26 11.6833 152.458 12.27 152.458 13.018C152.458 13.9273 152.135 14.6753 151.49 15.262C150.845 15.8487 149.928 16.2887 148.74 16.582C147.552 16.8607 146.151 17 144.538 17H129.578ZM135.078 12.864H144.538C145.315 12.864 145.873 12.7907 146.21 12.644C146.562 12.4973 146.738 12.2627 146.738 11.94C146.738 11.72 146.657 11.544 146.496 11.412C146.349 11.28 146.115 11.1847 145.792 11.126C145.469 11.0527 145.051 11.016 144.538 11.016H135.078V12.864ZM135.078 8.904H143.614C144.391 8.904 144.949 8.83067 145.286 8.684C145.638 8.53733 145.814 8.30267 145.814 7.98C145.814 7.64267 145.638 7.408 145.286 7.276C144.949 7.12933 144.391 7.056 143.614 7.056H135.078V8.904ZM154.43 1.82H159.71V17H154.43V1.82ZM182.004 17H176.724V6.22H182.004V17ZM176.944 11.434L176.988 12.49C176.944 12.798 176.797 13.1573 176.548 13.568C176.313 13.9787 175.983 14.404 175.558 14.844C175.133 15.284 174.612 15.6947 173.996 16.076C173.38 16.4427 172.676 16.7433 171.884 16.978C171.092 17.2127 170.212 17.33 169.244 17.33C168.276 17.33 167.359 17.2273 166.494 17.022C165.629 16.8313 164.859 16.5087 164.184 16.054C163.509 15.5993 162.981 14.9907 162.6 14.228C162.219 13.4507 162.028 12.4827 162.028 11.324V6.22H167.308V10.774C167.308 11.5807 167.44 12.204 167.704 12.644C167.983 13.084 168.415 13.392 169.002 13.568C169.589 13.7293 170.344 13.81 171.268 13.81C172.133 13.81 172.933 13.6853 173.666 13.436C174.414 13.172 175.067 12.8567 175.624 12.49C176.196 12.1233 176.636 11.7713 176.944 11.434ZM198.857 13.128H204.049C203.917 13.9787 203.492 14.7193 202.773 15.35C202.069 15.9807 201.035 16.472 199.671 16.824C198.322 17.1613 196.598 17.33 194.501 17.33C192.286 17.33 190.372 17.154 188.759 16.802C187.16 16.45 185.928 15.856 185.063 15.02C184.198 14.184 183.765 13.0547 183.765 11.632C183.765 10.224 184.183 9.102 185.019 8.266C185.87 7.41533 187.094 6.80667 188.693 6.44C190.292 6.07333 192.228 5.89 194.501 5.89C196.73 5.89 198.556 6.088 199.979 6.484C201.402 6.88 202.45 7.52533 203.125 8.42C203.8 9.3 204.122 10.4953 204.093 12.006H189.133C189.206 12.3873 189.412 12.7393 189.749 13.062C190.101 13.3847 190.636 13.6487 191.355 13.854C192.088 14.0447 193.064 14.14 194.281 14.14C195.542 14.14 196.576 14.052 197.383 13.876C198.204 13.7 198.696 13.4507 198.857 13.128ZM194.281 9.08C192.726 9.08 191.538 9.24867 190.717 9.586C189.91 9.92333 189.434 10.2607 189.287 10.598H198.967C198.864 10.2167 198.454 9.872 197.735 9.564C197.016 9.24133 195.865 9.08 194.281 9.08ZM206.186 1.82H211.466V17H206.186V1.82Z" fill="#B1663C"/>
</svg>

<svg width="212" height="22" fill="none" xmlns="http://www.w3.org/2000/svg"><path d="M.976 11.83h6.006c.103.308.403.572.902.792.499.205 1.166.367 2.002.484.85.103 1.833.154 2.948.154 1.1 0 1.965-.03 2.596-.088.645-.073 1.1-.19 1.364-.352.264-.176.396-.41.396-.704 0-.279-.213-.491-.638-.638-.425-.161-1.18-.271-2.266-.33-1.085-.059-2.61-.088-4.576-.088-1.467 0-2.735-.066-3.806-.198-1.056-.147-1.929-.367-2.618-.66-.675-.308-1.173-.69-1.496-1.144-.323-.47-.484-1.027-.484-1.672 0-1.115.374-2.031 1.122-2.75.763-.733 1.907-1.276 3.432-1.628 1.54-.367 3.461-.55 5.764-.55 3.373 0 5.947.491 7.722 1.474 1.79.968 2.684 2.369 2.684 4.202h-5.698c-.073-.484-.528-.85-1.364-1.1-.836-.264-2.024-.396-3.564-.396-1.525 0-2.662.088-3.41.264-.733.176-1.1.477-1.1.902 0 .22.103.396.308.528.205.132.557.242 1.056.33.513.073 1.232.125 2.156.154.924.03 2.097.044 3.52.044 1.57 0 2.904.08 4.004.242 1.1.147 1.987.374 2.662.682.69.308 1.188.704 1.496 1.188.308.47.462 1.027.462 1.672 0 1.115-.352 2.024-1.056 2.728-.704.704-1.819 1.225-3.344 1.562-1.525.337-3.52.506-5.984.506-1.393 0-2.677-.08-3.85-.242-1.159-.161-2.193-.396-3.102-.704-.91-.323-1.68-.711-2.31-1.166-.63-.47-1.115-.99-1.452-1.562a3.95 3.95 0 0 1-.484-1.936Zm33.675 5.5c-2.332 0-4.276-.19-5.83-.572-1.54-.381-2.699-.99-3.476-1.826-.763-.836-1.144-1.936-1.144-3.3 0-1.364.381-2.464 1.144-3.3.777-.85 1.936-1.467 3.476-1.848 1.554-.396 3.498-.594 5.83-.594 2.317 0 4.238.198 5.764.594 1.54.381 2.691.997 3.454 1.848.762.836 1.144 1.936 1.144 3.3 0 1.364-.382 2.464-1.144 3.3-.763.836-1.914 1.445-3.454 1.826-1.526.381-3.447.572-5.764.572Zm0-3.19c1.085 0 1.994-.088 2.728-.264.733-.19 1.29-.47 1.672-.836.381-.381.572-.85.572-1.408 0-.557-.191-1.027-.572-1.408-.367-.381-.917-.667-1.65-.858-.734-.19-1.65-.286-2.75-.286-1.086 0-2.01.095-2.772.286-.748.19-1.32.477-1.716.858-.382.367-.572.836-.572 1.408 0 .557.19 1.027.572 1.408.381.367.946.645 1.694.836.762.176 1.694.264 2.794.264Zm25.533 3.19c-1.32 0-2.508-.132-3.564-.396-1.056-.279-1.958-.667-2.706-1.166-.748-.513-1.32-1.122-1.716-1.826a4.674 4.674 0 0 1-.594-2.332c0-.85.198-1.62.594-2.31.396-.704.968-1.305 1.716-1.804.748-.513 1.65-.902 2.706-1.166 1.056-.279 2.244-.418 3.564-.418 1.584 0 2.992.227 4.224.682 1.247.44 2.222 1.085 2.926 1.936.704.85 1.056 1.877 1.056 3.08 0 1.261-.352 2.317-1.056 3.168-.704.85-1.679 1.489-2.926 1.914-1.232.425-2.64.638-4.224.638Zm-1.98-3.366c.998 0 1.848-.088 2.552-.264.704-.176 1.24-.433 1.606-.77.367-.352.55-.792.55-1.32 0-.777-.41-1.364-1.232-1.76-.82-.396-1.98-.594-3.476-.594-1.114 0-2.14.066-3.08.198-.924.132-1.672.374-2.244.726-.557.337-.836.814-.836 1.43s.28 1.1.836 1.452c.572.337 1.32.572 2.244.704.94.132 1.966.198 3.08.198ZM46.764 6.22h4.972l.308 4.18v11h-5.28V6.22ZM85.077 17v-4.004c0-.66-.132-1.217-.396-1.672-.264-.455-.733-.792-1.408-1.012-.66-.235-1.599-.352-2.816-.352-.69 0-1.364.066-2.024.198-.645.117-1.232.264-1.76.44-.513.176-.924.352-1.232.528l-.044-1.056c.059-.22.257-.55.594-.99.352-.455.858-.924 1.518-1.408.66-.499 1.489-.917 2.486-1.254 1.012-.352 2.207-.528 3.586-.528.865 0 1.701.08 2.508.242a6.651 6.651 0 0 1 2.156.814 4.186 4.186 0 0 1 1.54 1.496c.381.63.572 1.415.572 2.354V17h-5.28ZM70.38 17V1.82h5.28V17h-5.28ZM98.14.566v3.3h-5.588v-3.3h5.588ZM92.707 6.22h5.28V17h-5.28V6.22Zm22.511 6.908h5.192c-.132.85-.557 1.591-1.276 2.222-.704.63-1.738 1.122-3.102 1.474-1.349.337-3.072.506-5.17.506-2.214 0-4.128-.176-5.742-.528-1.598-.352-2.83-.946-3.696-1.782-.865-.836-1.298-1.965-1.298-3.388 0-1.408.418-2.53 1.254-3.366.851-.85 2.076-1.46 3.674-1.826 1.599-.367 3.535-.55 5.808-.55 2.23 0 4.056.198 5.478.594 1.423.396 2.472 1.041 3.146 1.936.675.88.998 2.075.968 3.586h-14.96c.074.381.279.733.616 1.056.352.323.888.587 1.606.792.734.19 1.709.286 2.926.286 1.262 0 2.296-.088 3.102-.264.822-.176 1.313-.425 1.474-.748Zm-4.576-4.048c-1.554 0-2.742.169-3.564.506-.806.337-1.283.675-1.43 1.012h9.68c-.102-.381-.513-.726-1.232-1.034-.718-.323-1.87-.484-3.454-.484ZM129.578 17V2.92h13.86c2.845 0 4.943.279 6.292.836 1.349.557 2.024 1.525 2.024 2.904 0 .88-.293 1.555-.88 2.024-.572.47-1.401.8-2.486.99-1.071.176-2.361.286-3.872.33l.176-.176c1.1 0 2.119.03 3.058.088.939.059 1.76.19 2.464.396.704.205 1.254.52 1.65.946.396.425.594 1.012.594 1.76 0 .91-.323 1.657-.968 2.244-.645.587-1.562 1.027-2.75 1.32-1.188.279-2.589.418-4.202.418h-14.96Zm5.5-4.136h9.46c.777 0 1.335-.073 1.672-.22.352-.147.528-.381.528-.704a.649.649 0 0 0-.242-.528c-.147-.132-.381-.227-.704-.286-.323-.073-.741-.11-1.254-.11h-9.46v1.848Zm0-3.96h8.536c.777 0 1.335-.073 1.672-.22.352-.147.528-.381.528-.704 0-.337-.176-.572-.528-.704-.337-.147-.895-.22-1.672-.22h-8.536v1.848ZM154.43 1.82h5.28V17h-5.28V1.82ZM182.004 17h-5.28V6.22h5.28V17Zm-5.06-5.566.044 1.056c-.044.308-.191.667-.44 1.078-.235.41-.565.836-.99 1.276-.425.44-.946.85-1.562 1.232a9.252 9.252 0 0 1-2.112.902c-.792.235-1.672.352-2.64.352a11.88 11.88 0 0 1-2.75-.308 6.654 6.654 0 0 1-2.31-.968 4.674 4.674 0 0 1-1.584-1.826c-.381-.777-.572-1.745-.572-2.904V6.22h5.28v4.554c0 .807.132 1.43.396 1.87.279.44.711.748 1.298.924.587.161 1.342.242 2.266.242.865 0 1.665-.125 2.398-.374a8.994 8.994 0 0 0 1.958-.946c.572-.367 1.012-.719 1.32-1.056Zm21.913 1.694h5.192c-.132.85-.557 1.591-1.276 2.222-.704.63-1.738 1.122-3.102 1.474-1.349.337-3.073.506-5.17.506-2.215 0-4.129-.176-5.742-.528-1.599-.352-2.831-.946-3.696-1.782-.865-.836-1.298-1.965-1.298-3.388 0-1.408.418-2.53 1.254-3.366.851-.85 2.075-1.46 3.674-1.826 1.599-.367 3.535-.55 5.808-.55 2.229 0 4.055.198 5.478.594 1.423.396 2.471 1.041 3.146 1.936.675.88.997 2.075.968 3.586h-14.96c.073.381.279.733.616 1.056.352.323.887.587 1.606.792.733.19 1.709.286 2.926.286 1.261 0 2.295-.088 3.102-.264.821-.176 1.313-.425 1.474-.748Zm-4.576-4.048c-1.555 0-2.743.169-3.564.506-.807.337-1.283.675-1.43 1.012h9.68c-.103-.381-.513-.726-1.232-1.034-.719-.323-1.87-.484-3.454-.484Zm11.905-7.26h5.28V17h-5.28V1.82Z" fill="#B1663C"/></svg>
